optimized/24/outline/currency-dollar.svg

<svg xmlns="http://www.w3.org/2000/svg" fill="none" viewBox="0 0 24 24">
  <path stroke-linecap="round" stroke-linejoin="round" d="M12 6V18M9 15.1818L9.87887 15.841C11.0504 16.7197 12.9498 16.7197 14.1214 15.841C15.2929 14.9623 15.2929 13.5377 14.1214 12.659C13.5355 12.2196 12.7677 12 11.9999 12C11.275 12 10.5502 11.7804 9.99709 11.341C8.891 10.4623 8.891 9.03772 9.9971 8.15904C11.1032 7.28036 12.8965 7.28036 14.0026 8.15904L14.4175 8.48863M21 12C21 16.9706 16.9706 21 12 21C7.02944 21 3 16.9706 3 12C3 7.02944 7.02944 3 12 3C16.9706 3 21 7.02944 21 12Z"/>
</svg>

<svg xmlns="http://www.w3.org/2000/svg" fill="none" viewBox="0 0 24 24" stroke-width="1.5" stroke="currentColor" aria-hidden="true">
  <path stroke-linecap="round" stroke-linejoin="round" d="M12 6v12m-3-2.818l.879.659c1.171.879 3.07.879 4.242 0 1.172-.879 1.172-2.303 0-3.182C13.536 12.219 12.768 12 12 12c-.725 0-1.45-.22-2.003-.659-1.106-.879-1.106-2.303 0-3.182s2.9-.879 4.006 0l.415.33M21 12a9 9 0 11-18 0 9 9 0 0118 0z"/>
</svg>
